src/icons/video_pause.svg

<svg viewBox="0 0 30 30" xmlns="http://www.w3.org/2000/svg">
    <path d="M15 0C6.75 0 0 6.75 0 15s6.75 15 15 15 15-6.75 15-15S23.25 0 15 0zm-1.5 21h-3V9h3v12zm6 0h-3V9h3v12z"/>
</svg>

<?xml version="1.0" encoding="UTF-8"?>
<svg width="30px" height="30px" viewBox="0 0 30 30" version="1.1" xmlns="http://www.w3.org/2000/svg" xmlns:xlink="http://www.w3.org/1999/xlink">
    <path d="M15,0 C6.75,0 0,6.75 0,15 C0,23.25 6.75,30 15,30 C23.25,30 30,23.25 30,15 C30,6.75 23.25,0 15,0 Z M13.5,21 L10.5,21 L10.5,9 L13.5,9 L13.5,21 Z M19.5,21 L16.5,21 L16.5,9 L19.5,9 L19.5,21 Z"></path>
</svg>
